Assets/UI/Sprites/Blockbuster.cube
LUT_3D_SIZE 6
-0.073415 -0.073066 -0.065330
0.200071 -0.054584 -0.062646
0.451745 -0.032663 -0.063502
0.658220 -0.020944 -0.065698
0.833989 -0.012237 -0.067323
1.006911 0.009698 -0.065619
-0.073185 0.139434 -0.037799
0.134589 0.139412 -0.048269
0.444088 0.140442 -0.064478
0.671117 0.147925 -0.067506
0.844760 0.168310 -0.068367
1.007039 0.179664 -0.068353
-0.068933 0.289150 0.013331
0.141960 0.299288 0.020557
0.430018 0.344804 -0.042000
0.682315 0.379702 -0.063612
0.851419 0.392049 -0.065995
1.007201 0.386852 -0.065594
-0.061346 0.533597 -0.016805
0.109681 0.535662 -0.032071
0.424508 0.606091 -0.033542
0.686925 0.591567 -0.034672
0.852321 0.604605 -0.037198
1.007353 0.609221 -0.033472
-0.045132 0.757956 0.011906
0.104911 0.764513 -0.007442
0.448724 0.807512 -0.028672
0.705222 0.827095 -0.033937
0.851431 0.781425 -0.033511
1.007486 0.775029 -0.033535
-0.024151 0.976243 0.074417
0.111194 0.981984 0.018618
0.431720 1.008147 0.020414
0.687395 1.021212 0.006089
0.854550 0.988136 -0.028630
1.007609 0.962943 -0.029167
-0.076941 -0.187753 0.064586
0.206745 -0.191290 0.074592
0.461440 -0.200700 0.093532
0.638851 -0.205426 0.101148
0.810148 -0.189709 0.116752
1.007970 -0.173494 0.121100
-0.069876 0.139343 0.193962
0.125401 0.139424 0.178675
0.431126 0.149460 0.175489
0.680856 0.174451 0.147061
0.849599 0.189727 0.125140
1.008040 0.217693 0.128720
-0.064001 0.329545 0.226177
0.124527 0.317637 0.210437
0.418587 0.355788 0.160255
0.690221 0.380116 0.124083
0.852857 0.377582 0.128752
1.007948 0.381948 0.128727
-0.056658 0.564197 0.253293
0.115583 0.559877 0.239874
0.368778 0.600144 0.181835
0.688511 0.591265 0.118996
0.852414 0.605079 0.128597
1.007953 0.603568 0.127985
-0.040693 0.770910 0.271923
0.108819 0.771113 0.259439
0.383340 0.804444 0.231041
0.701838 0.830916 0.193370
0.851959 0.781073 0.118251
1.007960 0.781308 0.160073
-0.025190 0.982368 0.294533
0.108073 0.987554 0.298843
0.367249 1.007383 0.291864
0.678493 1.020964 0.258281
0.855692 0.996532 0.214444
1.008240 0.967471 0.194559
-0.073743 -0.188155 0.269170
0.156125 -0.195074 0.167957
0.460324 -0.197191 0.199601
0.651169 -0.204023 0.223711
0.813971 -0.193491 0.321437
1.008277 -0.177716 0.317226
-0.066420 0.174534 0.403314
0.126914 0.156433 0.392456
0.404906 0.139107 0.337472
0.672700 0.139285 0.270702
0.841738 0.139512 0.240621
1.008234 0.189082 0.249925
-0.060744 0.364493 0.420881
0.141230 0.367017 0.422788
0.341309 0.379194 0.400091
0.668451 0.402686 0.343733
0.852088 0.422416 0.303316
1.008091 0.416997 0.297031
-0.051462 0.583252 0.446091
0.122723 0.592968 0.447830
0.285252 0.596200 0.440072
0.672030 0.617207 0.377664
0.853497 0.612796 0.300243
1.008080 0.595291 0.311237
-0.036255 0.785821 0.473937
0.125413 0.788868 0.464268
0.283160 0.798446 0.453363
0.674135 0.835327 0.423933
0.853275 0.791556 0.333273
1.008069 0.793512 0.374384
-0.027153 0.993821 0.507117
0.119285 0.993882 0.488521
0.307225 1.004951 0.491976
0.659273 1.020841 0.466436
0.852971 1.005449 0.414346
1.008113 0.975006 0.371174
-0.067668 -0.193106 0.538527
0.156551 -0.198853 0.295754
0.368394 -0.196571 0.318420
0.659278 -0.204828 0.488567
0.822533 -0.200459 0.507993
1.007773 -0.185334 0.522556
-0.063173 0.219017 0.592236
0.139947 0.207007 0.600441
0.312496 0.139209 0.533690
0.672844 0.139363 0.523068
0.845456 0.139440 0.514724
1.007590 0.156609 0.491243
-0.059920 0.396381 0.606939
0.134913 0.413747 0.624157
0.279875 0.402670 0.611428
0.657279 0.382050 0.536446
0.850066 0.383268 0.508247
1.007495 0.385736 0.493093
-0.050534 0.587022 0.631983
0.126648 0.600657 0.645625
0.277716 0.609210 0.652166
0.630433 0.638113 0.623808
0.852955 0.636412 0.569402
1.007440 0.617238 0.547026
-0.034907 0.797584 0.680698
0.132560 0.802647 0.681970
0.272642 0.807180 0.672837
0.580865 0.827988 0.667890
0.854724 0.822538 0.617142
1.007392 0.808749 0.610808
-0.030713 1.003856 0.710463
0.123340 1.005002 0.703936
0.254753 1.006001 0.692784
0.581855 1.020381 0.670609
0.845816 1.018630 0.641035
1.007192 0.987890 0.595980
-0.060678 -0.200060 0.735000
0.163881 -0.204869 0.492701
0.364763 -0.204957 0.466115
0.626421 -0.206701 0.642533
0.830400 -0.207219 0.674475
1.006929 -0.197217 0.680818
-0.060864 0.267324 0.790341
0.118603 0.242806 0.803153
0.303265 0.139401 0.721973
0.592068 0.139418 0.697683
0.844639 0.139501 0.702099
1.006686 0.172717 0.685752
-0.055270 0.441997 0.806972
0.128111 0.454722 0.823563
0.251454 0.434282 0.816785
0.568470 0.358106 0.732824
0.849052 0.367850 0.692877
1.006594 0.398630 0.693755
-0.046758 0.611341 0.826930
0.125739 0.621385 0.838506
0.268831 0.634548 0.845675
0.535279 0.636708 0.836508
0.848794 0.619641 0.746949
1.006537 0.613927 0.736621
-0.035255 0.798429 0.847267
0.133276 0.805051 0.849096
0.277178 0.815288 0.849543
0.480573 0.829603 0.849689
0.845162 0.847104 0.847660
1.006498 0.825356 0.831959
-0.032424 1.012755 0.849384
0.122589 1.017894 0.850158
0.243633 1.020128 0.850668
0.400087 1.021068 0.849504
0.816166 1.021528 0.845636
1.006168 1.007025 0.828477
-0.060637 -0.194790 0.949471
0.173593 -0.204111 0.794741
0.386232 -0.207154 0.774620
0.620945 -0.209578 0.795455
0.843133 -0.210438 0.835167
1.006347 -0.209709 0.819838
-0.057880 0.297770 0.978281
0.113754 0.269684 0.977039
0.301749 0.139515 0.909239
0.565978 0.139515 0.867732
0.840165 0.155202 0.876670
1.006092 0.178756 0.860395
-0.049476 0.471673 0.978581
0.126067 0.473263 0.978620
0.250314 0.441203 0.977312
0.554697 0.342565 0.908599
0.841017 0.369364 0.872506
1.006034 0.399480 0.866653
-0.040987 0.636020 0.978598
0.129511 0.639756 0.978613
0.260806 0.645159 0.978975
0.482219 0.627723 0.978378
0.837419 0.598418 0.916002
1.005859 0.617228 0.920638
-0.035755 0.808274 0.984848
0.141365 0.813485 0.987268
0.283819 0.820018 0.990774
0.446422 0.828292 1.000128
0.826014 0.843829 0.989448
1.005748 0.831405 0.982254
-0.034086 0.998962 0.994415
0.133389 1.004166 1.001259
0.264867 1.008710 1.005084
0.425844 1.013553 1.008105
0.663982 1.013064 0.998860
1.005647 1.013436 1.001769
