Assets/UI/Sprites/Blockbuster.cube
LUT_3D_SIZE 16
-0.073415 -0.073066 -0.065330
-0.015899 -0.073453 -0.065410
0.083721 -0.069247 -0.065834
0.200071 -0.054584 -0.062646
0.289268 -0.046248 -0.062534
0.372713 -0.038963 -0.062879
0.451745 -0.032663 -0.063502
0.526474 -0.026856 -0.064277
0.595623 -0.022990 -0.065025
0.658220 -0.020944 -0.065698
0.717784 -0.018778 -0.066294
0.775506 -0.016452 -0.066876
0.833989 -0.012237 -0.067323
0.889038 0.005779 -0.066931
0.941895 0.009570 -0.065972
1.006911 0.009698 -0.065619
-0.073435 -0.004453 -0.065477
-0.013887 -0.004627 -0.065400
0.090249 0.002157 -0.066235
0.199625 0.014745 -0.062990
0.290175 0.020113 -0.062490
0.373816 0.025467 -0.062788
0.452277 0.031943 -0.063379
0.526248 0.048752 -0.064084
0.594703 0.048762 -0.064791
0.657023 0.032394 -0.065440
0.716500 0.027127 -0.066065
0.774339 0.022405 -0.066665
0.833072 0.017971 -0.067102
0.888628 0.014427 -0.066636
0.941830 0.012447 -0.065572
1.006961 0.011724 -0.065153
-0.073559 0.096302 -0.053692
-0.006892 0.096296 -0.053719
0.093258 0.096288 -0.058489
0.160673 0.096281 -0.063262
0.265516 0.096359 -0.063229
0.359281 0.096369 -0.063536
0.446831 0.096375 -0.064248
0.527326 0.096379 -0.065054
0.599787 0.096382 -0.065804
0.663476 0.096383 -0.066419
0.723161 0.096385 -0.066982
0.780797 0.096386 -0.067452
0.838850 0.097274 -0.067820
0.891048 0.105843 -0.067840
0.941747 0.110962 -0.067636
1.006995 0.112166 -0.067584
-0.073185 0.139434 -0.037799
-0.007752 0.139426 -0.037072
0.090228 0.139419 -0.035780
0.134589 0.139412 -0.048269
0.247584 0.139489 -0.058694
0.347937 0.139567 -0.062715
0.444088 0.140442 -0.064478
0.531065 0.141520 -0.065711
0.606645 0.144012 -0.066752
0.671117 0.147925 -0.067506
0.730511 0.152679 -0.067979
0.787903 0.158947 -0.068255
0.844760 0.168310 -0.068367
0.893156 0.176065 -0.068387
0.941470 0.179121 -0.068349
1.007039 0.179664 -0.068353
-0.071831 0.182565 -0.024399
-0.009346 0.182557 -0.024419
0.099506 0.182600 -0.019543
0.136817 0.182594 -0.015211
0.237749 0.192046 -0.040210
0.337957 0.197396 -0.055537
0.439172 0.203309 -0.062263
0.532568 0.208313 -0.065644
0.612090 0.211397 -0.067403
0.677178 0.214748 -0.068155
0.736402 0.219774 -0.068552
0.793705 0.227106 -0.068636
0.848653 0.235561 -0.068614
0.894000 0.240752 -0.068586
0.941300 0.242462 -0.068574
1.007092 0.243062 -0.068595
-0.070303 0.225697 -0.006249
-0.010714 0.225690 -0.006688
0.105821 0.225741 -0.007768
0.144454 0.236131 0.015853
0.226866 0.256529 -0.008834
0.331671 0.264909 -0.039475
0.432789 0.267694 -0.054475
0.529811 0.279701 -0.062147
0.613092 0.291938 -0.066200
0.680626 0.297576 -0.067963
0.740801 0.300545 -0.068586
0.798654 0.305444 -0.068807
0.850317 0.308789 -0.068803
0.893567 0.310146 -0.068609
0.941335 0.311056 -0.068447
1.007145 0.311731 -0.068427
-0.068933 0.289150 0.013331
-0.011902 0.289416 0.013001
0.107950 0.284114 0.004693
0.141960 0.299288 0.020557
0.217535 0.329420 0.008334
0.320632 0.344802 -0.025068
0.430018 0.344804 -0.042000
0.527059 0.348079 -0.054891
0.613383 0.365068 -0.061358
0.682315 0.379702 -0.063612
0.743678 0.387610 -0.064921
0.802763 0.393758 -0.065662
0.851419 0.392049 -0.065995
0.893460 0.388221 -0.065819
0.941451 0.386663 -0.065609
1.007201 0.386852 -0.065594
-0.066811 0.364135 0.013519
-0.012033 0.364676 0.013462
0.108359 0.357737 0.014686
0.134668 0.370119 0.011179
0.201282 0.403192 -0.018392
0.311593 0.431168 -0.027672
0.423779 0.432952 -0.032070
0.526599 0.427971 -0.043213
0.612898 0.432448 -0.053668
0.683598 0.446994 -0.057512
0.746042 0.461532 -0.058731
0.805709 0.474373 -0.058571
0.852422 0.474453 -0.058015
0.893157 0.470050 -0.057217
0.941567 0.467943 -0.056821
1.007255 0.467933 -0.056803
-0.064375 0.448207 -0.022597
-0.011557 0.448764 -0.022328
0.106938 0.441429 -0.019635
0.121621 0.450882 -0.021457
0.164722 0.478246 -0.028266
0.300194 0.510381 -0.033811
0.426012 0.528940 -0.033081
0.526590 0.517517 -0.033172
0.613646 0.509376 -0.039987
0.684862 0.514948 -0.047928
0.748546 0.527612 -0.051072
0.806891 0.540860 -0.050470
0.852527 0.544200 -0.047958
0.893186 0.544192 -0.044557
0.941696 0.544876 -0.042337
1.007303 0.545452 -0.041778
-0.061346 0.533597 -0.016805
-0.009417 0.533920 -0.015767
0.101091 0.528829 -0.023162
0.109681 0.535662 -0.032071
0.128491 0.556622 -0.033660
0.289853 0.584032 -0.034040
0.424508 0.606091 -0.033542
0.536606 0.613179 -0.032814
0.616512 0.596964 -0.033439
0.686925 0.591567 -0.034672
0.751141 0.597550 -0.037696
0.807481 0.603715 -0.038924
0.852321 0.604605 -0.037198
0.893205 0.605965 -0.034616
0.941782 0.608376 -0.033502
1.007353 0.609221 -0.033472
-0.056534 0.613943 0.001751
-0.004775 0.613945 0.006072
0.095982 0.611951 0.004519
0.105853 0.616580 -0.027971
0.123504 0.633791 -0.034428
0.288885 0.657088 -0.033885
0.427668 0.675759 -0.033622
0.540482 0.689400 -0.033395
0.625241 0.686315 -0.033236
0.689981 0.671239 -0.033104
0.753540 0.669020 -0.033358
0.807597 0.666697 -0.033739
0.852057 0.662895 -0.033307
0.893275 0.662692 -0.032751
0.941845 0.664751 -0.032820
1.007403 0.665629 -0.033007
-0.050738 0.688283 -0.002728
0.001341 0.687980 0.001422
0.093403 0.688884 0.013037
0.104616 0.693370 -0.015303
0.132233 0.708367 -0.034038
0.299980 0.728652 -0.034874
0.438940 0.743744 -0.034442
0.546857 0.756979 -0.034128
0.633205 0.763710 -0.033776
0.698831 0.753978 -0.033481
0.757139 0.742126 -0.033353
0.807893 0.731318 -0.033353
0.851729 0.722180 -0.033362
0.893324 0.719167 -0.033449
0.941893 0.719798 -0.033530
1.007444 0.720477 -0.033551
-0.045132 0.757956 0.011906
0.007469 0.757474 0.015704
0.090883 0.759720 0.003681
0.104911 0.764513 -0.007442
0.165657 0.778073 -0.026248
0.316399 0.795299 -0.026776
0.448724 0.807512 -0.028672
0.552343 0.818449 -0.031617
0.636086 0.827284 -0.033306
0.705222 0.827095 -0.033937
0.763320 0.815407 -0.033803
0.809481 0.796449 -0.033566
0.851431 0.781425 -0.033511
0.893370 0.775315 -0.033522
0.941935 0.774453 -0.033526
1.007486 0.775029 -0.033535
-0.039675 0.826302 0.041993
0.013524 0.825858 0.045470
0.083008 0.827723 0.014046
0.110154 0.832633 -0.005618
0.191906 0.843876 -0.012583
0.323306 0.857298 -0.004566
0.445464 0.866585 -0.012916
0.547593 0.875305 -0.020831
0.630496 0.882770 -0.025892
0.701049 0.886652 -0.029862
0.761387 0.879881 -0.033004
0.809219 0.860988 -0.033741
0.851584 0.841991 -0.033503
0.893431 0.831498 -0.033508
0.941999 0.828171 -0.033514
1.007531 0.828473 -0.033520
-0.035942 0.893812 0.063140
0.017657 0.893374 0.066122
0.074486 0.894570 0.037351
0.124359 0.899276 -0.005114
0.201448 0.908600 -0.004111
0.320695 0.918992 0.008212
0.434670 0.925969 -0.001683
0.536177 0.933245 -0.011027
0.620044 0.938410 -0.017218
0.689521 0.940678 -0.022807
0.752675 0.939078 -0.031088
0.807395 0.926359 -0.033957
0.851949 0.905830 -0.033488
0.893532 0.890717 -0.033489
0.942018 0.884747 -0.033494
1.007568 0.884935 -0.033503
-0.024151 0.976243 0.074417
0.034945 0.975972 0.076860
0.068224 0.977156 0.052511
0.111194 0.981984 0.018618
0.196622 0.991408 0.018373
0.317526 1.001372 0.023362
0.431720 1.008147 0.020414
0.534627 1.015689 0.015574
0.619077 1.020210 0.011420
0.687395 1.021212 0.006089
0.752303 1.021554 -0.018945
0.809952 1.010011 -0.029301
0.854550 0.988136 -0.028630
0.894195 0.970763 -0.028782
0.942600 0.963759 -0.029020
1.007609 0.962943 -0.029167
-0.077588 -0.190327 -0.012521
-0.017624 -0.190578 -0.011311
0.089143 -0.191210 -0.002922
0.207893 -0.191612 0.005454
0.294235 -0.194737 0.001234
0.371901 -0.198008 -0.003645
0.444880 -0.200851 -0.008195
0.514929 -0.203109 -0.012116
0.581352 -0.204473 -0.015258
0.642848 -0.202621 -0.016497
0.702385 -0.198282 -0.017045
0.761666 -0.190930 -0.017546
0.829293 -0.181510 -0.017861
0.887468 -0.173039 -0.017191
0.941693 -0.168408 -0.016015
1.007661 -0.167382 -0.015604
-0.072938 -0.003876 0.001958
-0.013837 -0.004398 0.001607
0.089986 -0.000060 0.002444
0.200577 0.014303 0.008985
0.290522 0.022220 0.009198
0.373779 0.029670 0.008457
0.452280 0.046750 0.007304
0.526454 0.052934 0.005921
0.595361 0.053189 0.004442
0.658032 0.052128 0.002894
0.717612 0.047143 0.000945
0.775579 0.033591 -0.000634
0.834169 0.030667 -0.002020
0.889417 0.028228 -0.002518
0.942449 0.027292 -0.001947
1.007712 0.027339 -0.002561
-0.072940 0.096233 0.013943
-0.008776 0.096221 0.011469
0.092824 0.096209 0.008177
0.160255 0.096296 0.008018
0.266282 0.096334 0.008839
0.361120 0.096349 0.007891
0.448946 0.096358 0.006233
0.529230 0.096365 0.004237
0.601152 0.096370 0.002122
0.664544 0.096372 -0.000451
0.724035 0.096375 -0.005130
0.781653 0.096376 -0.007422
0.839613 0.096379 -0.008428
0.891788 0.097923 -0.008826
0.942448 0.112138 -0.005599
1.007712 0.122834 -0.003512
-0.072533 0.139368 0.028019
-0.007161 0.139356 0.028064
0.089875 0.139420 0.032869
0.134153 0.139410 0.026959
0.248892 0.139463 0.012960
0.349754 0.139806 0.008564
0.446007 0.141086 0.005705
0.532955 0.142528 0.002936
0.608340 0.145313 -0.000160
0.672660 0.149181 -0.005788
0.731866 0.153786 -0.007695
0.789196 0.159817 -0.008600
0.845845 0.168839 -0.008986
0.893933 0.175848 -0.009297
0.942163 0.180181 -0.005982
1.007711 0.182208 -0.004074
-0.071255 0.182503 0.053579
-0.005377 0.182491 0.054375
0.098337 0.182551 0.059884
0.134686 0.182548 0.065081
0.237882 0.192272 0.037984
0.339033 0.197712 0.015127
0.440659 0.203618 0.007225
0.534118 0.208712 0.001821
0.613373 0.212040 -0.003423
0.678337 0.215135 -0.007510
0.737492 0.220275 -0.008773
0.794672 0.227667 -0.009167
0.849453 0.235975 -0.009287
0.894671 0.240914 -0.009540
0.941980 0.242921 -0.006167
1.007725 0.243871 -0.004248
-0.069853 0.225639 0.079062
-0.003539 0.225627 0.079854
0.104739 0.225611 0.080115
0.142190 0.235957 0.085625
0.226459 0.256544 0.073959
0.331861 0.265040 0.037154
0.433560 0.268032 0.013836
0.530925 0.280091 0.003550
0.614186 0.292303 -0.006004
0.681676 0.297946 -0.008402
0.741748 0.300891 -0.009179
0.799491 0.305776 -0.009488
0.850911 0.308975 -0.009583
0.894159 0.310357 -0.009661
0.941983 0.310890 -0.006111
1.007743 0.311207 -0.004151
-0.068578 0.289654 0.083773
-0.001937 0.291112 0.086272
0.106882 0.285351 0.085171
0.142081 0.299339 0.086956
0.216256 0.329461 0.081789
0.320599 0.344813 0.057926
0.430269 0.344801 0.023753
0.527675 0.348293 0.009198
0.614241 0.365436 -0.002320
0.683204 0.380186 -0.004625
0.744608 0.387969 -0.005871
0.803503 0.394000 -0.006608
0.852029 0.392166 -0.006982
0.894061 0.388507 -0.007024
0.942077 0.385886 -0.003742
1.007761 0.385062 -0.001971
-0.066558 0.364433 0.082650
-0.000057 0.366321 0.086839
0.106575 0.359119 0.084712
0.136017 0.370563 0.083526
0.199484 0.403276 0.067990
0.311407 0.431071 0.037109
0.423940 0.432936 0.028881
0.526947 0.427925 0.017136
0.613519 0.432609 0.004628
0.684232 0.447318 0.001089
0.746782 0.461872 -0.000057
0.806426 0.474549 0.000118
0.853047 0.474580 0.000684
0.893849 0.470362 0.001338
0.942169 0.466919 0.003847
1.007777 0.465639 0.004994
-0.064197 0.448194 0.067544
0.001390 0.450227 0.076578
0.104130 0.442779 0.072367
0.123946 0.451516 0.070125
0.164400 0.478424 0.036674
0.300037 0.510411 0.021348
0.426084 0.528878 0.021179
0.526975 0.517533 0.022191
0.614024 0.509307 0.018656
0.685448 0.515043 0.010640
0.749256 0.527821 0.007408
0.807420 0.540944 0.008095
0.853101 0.544267 0.011184
0.893765 0.544428 0.014609
0.942266 0.544229 0.016815
1.007792 0.544025 0.017020
-0.061212 0.533500 0.062093
0.002857 0.535206 0.069462
0.100219 0.529452 0.037190
0.110815 0.535840 0.031551
0.126923 0.556681 0.022465
0.290291 0.584289 0.020854
0.424954 0.606181 0.021990
0.537141 0.613280 0.023370
0.617002 0.596923 0.023464
0.687415 0.591528 0.022698
0.751664 0.597613 0.020105
0.808037 0.603757 0.019026
0.852849 0.604614 0.020683
0.893739 0.606121 0.022884
0.942302 0.608276 0.023497
1.007806 0.608987 0.023155
-0.056430 0.613882 0.039817
0.006252 0.615153 0.055887
0.096894 0.612006 0.045960
0.105638 0.616658 0.029499
0.122393 0.633825 0.020444
0.289821 0.657379 0.021247
0.428098 0.675941 0.022063
0.541089 0.689556 0.022656
0.625814 0.686356 0.022996
0.690510 0.671198 0.023262
0.754059 0.669005 0.023219
0.808119 0.666678 0.022986
0.852572 0.662934 0.023288
0.893756 0.662702 0.023596
0.942343 0.664894 0.023403
1.007819 0.665830 0.023179
-0.050659 0.688230 0.051060
0.011043 0.689339 0.068970
0.095361 0.688596 0.056470
0.103909 0.693393 0.049366
0.130608 0.708452 0.024146
0.301207 0.728816 0.021052
0.439441 0.743886 0.021027
0.547406 0.757083 0.021394
0.633695 0.763829 0.021922
0.699335 0.753909 0.022448
0.757666 0.742087 0.022781
0.808367 0.731280 0.022871
0.852195 0.722169 0.022870
0.893789 0.719123 0.022711
0.942372 0.719967 0.022518
1.007830 0.720785 0.022431
-0.045058 0.757930 0.072214
0.015593 0.758830 0.088030
0.093255 0.759324 0.067122
0.104099 0.764612 0.051001
0.160689 0.778134 0.032319
0.316545 0.795459 0.031634
0.449163 0.807528 0.028925
0.552820 0.818442 0.025689
0.636433 0.827356 0.022462
0.705547 0.827084 0.021496
0.763792 0.815321 0.021951
0.809919 0.796326 0.022423
0.851876 0.781325 0.022610
0.893811 0.775232 0.022389
0.942392 0.774591 0.022077
1.007837 0.775238 0.021917
-0.039603 0.826272 0.096584
0.018885 0.826802 0.108370
0.084914 0.827334 0.081537
0.109484 0.832579 0.037711
0.188362 0.843933 0.036889
0.323220 0.857470 0.042327
0.445928 0.866606 0.041911
0.548008 0.875334 0.037078
0.630939 0.882778 0.027747
0.701461 0.886642 0.022339
0.761843 0.879830 0.020027
0.809637 0.860907 0.020057
0.851965 0.841857 0.020907
0.893822 0.831354 0.021167
0.942373 0.828167 0.022863
1.007852 0.828573 0.024682
-0.035865 0.893800 0.115996
0.020505 0.894053 0.125703
0.075855 0.894584 0.100901
0.124810 0.899420 0.056552
0.200907 0.908670 0.050488
0.319049 0.918968 0.057336
0.433360 0.925930 0.057592
0.535536 0.933300 0.055416
0.619792 0.938393 0.045230
0.689534 0.940659 0.037935
0.752701 0.939017 0.030195
0.807635 0.926515 0.026657
0.852351 0.905941 0.025723
0.893898 0.890732 0.024827
0.942373 0.884849 0.026128
1.007866 0.885128 0.027702
-0.024363 0.976216 0.123515
0.033313 0.976678 0.133089
0.066066 0.977533 0.112620
0.109069 0.982436 0.071183
0.190648 0.991512 0.057206
0.311696 1.001264 0.058954
0.427775 1.007991 0.057698
0.532600 1.015536 0.057629
0.618290 1.020120 0.053066
0.687161 1.021111 0.049020
0.752068 1.021513 0.039592
0.810406 1.010476 0.033954
0.855339 0.988580 0.030817
0.894711 0.970786 0.028436
0.943079 0.963950 0.027661
1.007938 0.963119 0.027595
-0.077455 -0.189537 0.050996
-0.016717 -0.189730 0.054007
0.087971 -0.191056 0.076311
0.218155 -0.191513 0.112353
0.306936 -0.194860 0.119866
0.380586 -0.198373 0.124911
0.448432 -0.201312 0.127418
0.513408 -0.203469 0.127879
0.577340 -0.204532 0.126776
0.638304 -0.204296 0.121521
0.697897 -0.202061 0.115689
0.757104 -0.196263 0.110047
0.825074 -0.187370 0.104516
0.885107 -0.178821 0.100880
0.941059 -0.173863 0.100445
1.007989 -0.172328 0.101051
-0.072799 0.000971 0.114229
-0.014552 -0.001786 0.113200
0.087694 -0.000585 0.119086
0.207257 0.012029 0.138693
0.300700 0.016988 0.137537
0.381268 0.020342 0.135141
0.455923 0.023489 0.132258
0.526302 0.027131 0.128828
0.593367 0.031661 0.124737
0.655683 0.037049 0.119795
0.715351 0.029754 0.112070
0.773056 0.024240 0.106187
0.831813 0.025476 0.100684
0.887893 0.022611 0.096227
0.942270 0.022979 0.095278
1.008025 0.025841 0.089956
-0.072366 0.096212 0.117381
-0.008335 0.096199 0.116415
0.087856 0.096283 0.117241
0.151724 0.096124 0.133621
0.269460 0.096025 0.138108
0.368749 0.096031 0.135296
0.457881 0.096059 0.130518
0.537519 0.096097 0.124275
0.607153 0.096133 0.116416
0.668157 0.096163 0.103200
0.725606 0.096372 0.087785
0.781972 0.096374 0.079529
0.838688 0.096376 0.075391
0.890715 0.096377 0.071427
0.942414 0.096691 0.083217
1.008077 0.143434 0.091908
-0.071492 0.139348 0.124579
-0.005828 0.139335 0.124252
0.086608 0.139425 0.122351
0.130410 0.139424 0.130833
0.249030 0.139162 0.137668
0.351136 0.142615 0.135154
0.448990 0.146576 0.129290
0.539117 0.151012 0.120393
0.615884 0.156546 0.107633
0.679471 0.161349 0.086754
0.737490 0.164968 0.077037
0.793914 0.170486 0.071559
0.848547 0.177991 0.069975
0.894624 0.182333 0.069469
0.942481 0.191984 0.083815
1.007944 0.199551 0.091951
-0.070180 0.182485 0.133399
-0.004061 0.182472 0.133555
0.092034 0.182516 0.131505
0.126077 0.182562 0.133341
0.231736 0.194146 0.137703
0.341809 0.200600 0.134391
0.445922 0.206763 0.126445
0.540847 0.212887 0.114375
0.619290 0.218060 0.096971
0.683430 0.221883 0.081116
0.741871 0.226462 0.072707
0.798195 0.232997 0.070783
0.850693 0.239378 0.070921
0.894672 0.241977 0.070194
0.942148 0.247576 0.084317
1.007896 0.252563 0.092209
-0.068749 0.237245 0.140118
-0.002347 0.237953 0.141500
0.098999 0.232052 0.140491
0.131242 0.237223 0.138037
0.209068 0.257749 0.138221
0.331203 0.267781 0.132760
0.438512 0.272025 0.124365
0.537521 0.283576 0.108902
0.620192 0.293068 0.081892
0.686390 0.297145 0.072038
0.745712 0.299825 0.070465
0.801984 0.304381 0.070668
0.851243 0.306934 0.070816
0.894221 0.308002 0.070040
0.942156 0.309479 0.084134
1.007900 0.310876 0.092070
-0.067183 0.305784 0.146469
-0.000714 0.306795 0.148356
0.103308 0.299437 0.146987
0.138131 0.302527 0.142674
0.192791 0.328894 0.138129
0.313673 0.346394 0.126513
0.430515 0.347304 0.118808
0.531627 0.352177 0.105319
0.618641 0.368975 0.073696
0.687424 0.380634 0.072243
0.748435 0.385496 0.072394
0.805523 0.388502 0.072456
0.852427 0.386101 0.072262
0.893968 0.383322 0.071559
0.942213 0.378506 0.084273
1.007904 0.375302 0.091408
-0.065059 0.382385 0.151661
0.000933 0.383577 0.153825
0.102955 0.375781 0.148683
0.137558 0.376898 0.144600
0.176840 0.402261 0.136514
0.298013 0.430455 0.112157
0.419854 0.434325 0.103458
0.527417 0.428821 0.096722
0.616269 0.434754 0.076494
0.687271 0.450148 0.076146
0.750156 0.463235 0.076245
0.807409 0.470978 0.076584
0.852949 0.468971 0.077014
0.893905 0.465219 0.076973
0.942290 0.456277 0.085471
1.007908 0.449874 0.090152
-0.062841 0.464917 0.155870
0.002050 0.466126 0.157065
0.100178 0.458989 0.142733
0.130428 0.459038 0.141803
0.142832 0.478381 0.131711
0.281495 0.508986 0.092260
0.416574 0.528107 0.073803
0.525049 0.518638 0.078542
0.614806 0.508743 0.088403
0.687343 0.515781 0.083639
0.751915 0.530135 0.081350
0.808129 0.540750 0.082273
0.852943 0.542599 0.085593
0.893846 0.542502 0.089015
0.942394 0.537090 0.090055
1.007912 0.532555 0.088644
-0.059480 0.546711 0.166343
0.003833 0.547645 0.160392
0.093481 0.542089 0.122059
0.119348 0.542556 0.129832
0.130819 0.557034 0.115247
0.258060 0.583152 0.102587
0.412693 0.605181 0.091527
0.533056 0.614096 0.082178
0.616632 0.597172 0.083789
0.688188 0.590915 0.085715
0.753678 0.598490 0.087839
0.808397 0.603850 0.088164
0.852745 0.604691 0.089131
0.893875 0.606465 0.089341
0.942464 0.607013 0.088184
1.007916 0.606681 0.085742
-0.054258 0.623394 0.176995
0.007853 0.624155 0.171625
0.088203 0.620372 0.127198
0.109668 0.621745 0.132303
0.127915 0.633681 0.115104
0.255825 0.656240 0.111047
0.413184 0.674902 0.103521
0.535034 0.689411 0.100034
0.624536 0.687686 0.091515
0.690891 0.671685 0.083286
0.755566 0.669471 0.084548
0.808436 0.666419 0.085726
0.852507 0.662945 0.087197
0.893905 0.663341 0.085565
0.942447 0.666149 0.085366
1.007919 0.667784 0.085106
-0.048387 0.695768 0.188691
0.012874 0.696223 0.188064
0.085689 0.693486 0.150392
0.106027 0.696289 0.145443
0.129002 0.707410 0.128534
0.274287 0.727360 0.116488
0.423144 0.742770 0.109103
0.540350 0.756485 0.107534
0.631299 0.764328 0.103155
0.699184 0.755067 0.092813
0.758786 0.743117 0.083675
0.808693 0.731041 0.083299
0.852183 0.721898 0.084967
0.893917 0.719354 0.084635
0.942461 0.721394 0.083737
1.007922 0.723281 0.083179
-0.042964 0.763933 0.200108
0.017382 0.764116 0.201910
0.084351 0.762000 0.167353
0.105252 0.765731 0.153807
0.134034 0.776456 0.138903
0.290953 0.794114 0.129768
0.432990 0.806593 0.122972
0.545117 0.817778 0.119306
0.633416 0.827371 0.110029
0.704795 0.828157 0.101744
0.764187 0.816243 0.091324
0.810179 0.796232 0.083547
0.851943 0.780931 0.082492
0.893926 0.775146 0.081844
0.942468 0.775777 0.084760
1.007926 0.777484 0.088874
-0.038281 0.830496 0.212879
0.020267 0.830478 0.213298
0.080980 0.828941 0.166244
0.109309 0.832463 0.128252
0.159470 0.842119 0.118478
0.300796 0.856354 0.114493
0.432538 0.865991 0.111414
0.540867 0.874805 0.108926
0.627555 0.882745 0.101907
0.700076 0.887045 0.096647
0.761467 0.880442 0.090200
0.809776 0.861122 0.078343
0.852181 0.841793 0.073788
0.893926 0.831024 0.074490
0.942468 0.829048 0.091607
1.007934 0.830512 0.108954
-0.035551 0.896734 0.222942
0.021178 0.896819 0.225473
0.080836 0.897113 0.197171
0.124023 0.900538 0.168943
0.188972 0.907787 0.165886
0.291297 0.918140 0.155497
0.412561 0.925460 0.150998
0.522656 0.932605 0.147727
0.613588 0.938285 0.144296
0.686199 0.940628 0.141022
0.750120 0.939323 0.134393
0.807098 0.928985 0.120745
0.852705 0.908209 0.108548
0.893983 0.891724 0.102294
0.942453 0.886106 0.112666
1.007941 0.887004 0.124710
-0.024481 0.978849 0.229445
0.033704 0.979086 0.234713
0.070277 0.981226 0.235205
0.108789 0.985091 0.235217
0.164246 0.991385 0.234499
0.272529 1.000135 0.222500
0.396063 1.007137 0.214799
0.512883 1.014526 0.208324
0.609009 1.020033 0.202009
0.682339 1.021041 0.197772
0.747761 1.021790 0.188126
0.809714 1.014959 0.171111
0.856217 0.992768 0.149792
0.895262 0.973049 0.132474
0.943492 0.965843 0.129616
1.008165 0.964986 0.129129
-0.076941 -0.187753 0.064586
-0.014303 -0.187792 0.065732
0.090707 -0.192013 0.067023
0.206745 -0.191290 0.074592
0.314141 -0.193582 0.081273
0.393364 -0.197236 0.088168
0.461440 -0.200700 0.093532
0.523541 -0.203480 0.096249
0.582367 -0.205190 0.097567
0.638851 -0.205426 0.101148
0.694574 -0.203687 0.106364
0.751066 -0.198378 0.112150
0.810148 -0.189709 0.116752
0.878231 -0.180754 0.119282
0.939089 -0.175212 0.120565
1.007970 -0.173494 0.121100
-0.072372 0.012038 0.166897
-0.011038 0.013239 0.163974
0.089668 -0.001844 0.150264
0.193555 0.012527 0.180807
0.304877 0.019959 0.183582
0.389070 0.021198 0.180040
0.463911 0.021347 0.176146
0.532414 0.020229 0.172155
0.595904 0.016017 0.168130
0.655054 0.014832 0.164227
0.712155 0.014797 0.159948
0.768255 0.014451 0.154927
0.824958 0.015567 0.148072
0.882328 0.014744 0.135327
0.940830 0.019804 0.127571
1.008167 0.024272 0.128742
-0.071077 0.096206 0.180522
-0.005889 0.096192 0.179835
0.086570 0.096288 0.171342
0.139768 0.096156 0.173622
0.266486 0.096013 0.181249
0.365578 0.096018 0.179555
0.454928 0.096045 0.175492
0.536330 0.096086 0.170315
0.607023 0.096125 0.164366
0.667416 0.096154 0.158516
0.723814 0.096181 0.151789
0.779200 0.096207 0.144422
0.834917 0.096291 0.138541
0.887913 0.096303 0.131033
0.941989 0.096377 0.127125
1.008360 0.144404 0.128470
-0.069876 0.139343 0.193962
-0.003670 0.139329 0.194156
0.091352 0.139385 0.186393
0.125401 0.139424 0.178675
0.227296 0.139165 0.180673
0.331778 0.142376 0.179665
0.431126 0.149460 0.175489
0.528991 0.157931 0.167580
0.613985 0.167890 0.157110
0.680856 0.174451 0.147061
0.740048 0.178203 0.135008
0.796425 0.183302 0.126580
0.849599 0.189727 0.125140
0.894776 0.193854 0.126898
0.942686 0.207153 0.128257
1.008040 0.217693 0.128720
-0.068446 0.193832 0.203873
-0.002054 0.194323 0.204969
0.100157 0.188530 0.197322
0.126725 0.186793 0.189682
0.205109 0.196719 0.184983
0.326376 0.204759 0.178777
0.430192 0.213247 0.172687
0.528019 0.223616 0.164163
0.613980 0.233945 0.153169
0.682965 0.242222 0.138988
0.744039 0.248612 0.126965
0.800779 0.254321 0.125752
0.851269 0.257307 0.127715
0.894465 0.256807 0.128707
0.942241 0.264665 0.128788
1.007946 0.272312 0.128738
-0.066312 0.257439 0.215041
-0.000009 0.257995 0.215744
0.104832 0.251452 0.207819
0.124684 0.247913 0.199724
0.179810 0.261021 0.192207
0.314986 0.274188 0.178837
0.428676 0.281057 0.167916
0.529456 0.291757 0.158119
0.617437 0.300576 0.143504
0.687094 0.305544 0.125850
0.748222 0.309679 0.125408
0.804198 0.313068 0.127730
0.851787 0.313435 0.128740
0.894085 0.311980 0.128793
0.942220 0.318659 0.128780
1.007947 0.325488 0.128741
-0.064001 0.329545 0.226177
0.001901 0.330228 0.227071
0.104679 0.323522 0.218735
0.124527 0.317637 0.210437
0.164890 0.330516 0.201335
0.287163 0.349266 0.180939
0.418587 0.355788 0.160255
0.527537 0.361883 0.145262
